X: 3
T:Quare Bungle Rye
R:
Z:Added by alf.
M:3/4
L:1/4
K:C
G|ccc|AGG|cce|g2g/g/|afa|
gec|ecA|G2G/G/|ccc|A2G|
cce|g2g/g/|afa|gec|fed|ecA|G3|
g> a g/e/|fdB|GAB|c3|]
